X:1
T: Susie's Favourite Dram until further notice
C:Susie Petrov
R:Jig
Q:180
K:A
M:6/8
L:1/16
|:E2|A2B2A2 c4B2|A2c2d2 e4f2|=g4d2 B4c2|d2B2=G2 G4E2|
A2B2A2 c4B2|A2c2d2 e4f2|=g4d2 B2c2d2|e2A2A2 A4:|
|:B2|A2a2a2 a6|A2=g2g2 g4A2|f2d2f2 e2c2e2|
|1d2B2=G2 G4B2|A2a2a2 a6|A2=g2g2 g4A2|f2d2B2 B2c2d2|e2A2A2 A4B2:|
|2d2B2=G2 G4E2|A2B2A2 c4B2|A2c2d2 e4f2|=g2d2B2 B2c2d2|e2A2A2 A4||
